X: 2
T: Paddy Fahey's
R: reel
M: 4/4
L: 1/8
K: Gmaj
G2 dG BcdB|A=F F2 cFAF|G2 dG Bcdg fgag fdcA|
G2 dG BcdB|A=F F2 cFAF|G2 dG Bcdg|fdcA G4||
fgaf g2 ae|fgag fd d2|fgaf g2 ag|fdcA dggf|
gbaf gfde|=f2 eg ^fdcA|dg g2 dgag|g2 ag fdcA||
G2 dG BcdB|A=F F2 cFAF|G2 dG Bcdg fgag fdcA|
G2 dG BcdB|A=F F2 cFAF|G2 dG Bcdg|fdcA G4||
fgaf g2 ae|fgag fd d2|fgaf g2 ag|fdcA dggf|
gbaf gfde|=f2 eg ^fdcA|dg g2 dgag|g2 ag fdcA||

composer: Paddy Fahey
